X:1
T:Smyrna, 87.87 D
T:Smyrna, 87.87 D
T:Arranged from Mozart
T:Public Domain Courtesy of the Cyber Hymnal™
C:Arranged from Mozart
Z:Public Domain
Z:Courtesy of the Cyber Hymnal™
%%score ( 1 2 ) ( 3 4 )
L:1/8
Q:1/4=105
M:4/4
K:F
V:1 treble 
V:2 treble 
V:3 bass 
V:4 bass 
V:1
 [Fc]2 [EB]2 | [FA]2 [CG]2 [CF]3 [DG] | [CF]2 [CE]2 [FB]2 [FA]2 | [FG]2 [Fd]2 c3 (z B) | %4
 [GB]2 [FA]2 [Fc]2 [EB]2 | [FA]2 [CG]2 [CF]2 (AG) | [CF]2 [CE]2 F2 [CG]2 | [CA]2 (cB) [FA]2 [EG]2 | %8
 F4 [Ff]2 (cB) | [FA]2 [Fc]2 [Ff]2 (cB) | [FA]2 [Fc]2 [Ac]2 ([Bd][Ge]) | %11
 [Ff]2 ([Ge][Af]) [Ge]2 [Fd]2 | [Ec]4 (cd) (Bc) | (AB) (GA) F2 (AG) | [CF]2 [CE]2 ([CA][Fc]) (Bd) | %15
 (c f2) [GB] [FA]2 [EG]2 | F4 |] %17
V:2
 x4 | x8 | x8 | x4 F2 E2 x | x8 | x6 D2 | x4 F2 x2 | x2 G2 x4 | F4 G2 x2 | x6 G2 | x8 | x8 | x8 | %13
 x4 F2 D2 | x6 F2 | F3 x5 | F4 |] %17
V:3
 [A,C]2 [G,C]2 | [F,C]2 (C>B,) [F,A,]3 [B,,B,] | [C,A,]2 [C,G,]2 [D,B,]2 [C,C]2 | %3
 [B,,D]2 [B,,B,]2 [C,A,]2 (G,C) x | [F,C]4 [A,C]2 [G,C]2 | [F,C]2 (C>B,) [F,A,]2 [B,,B,]2 | %6
 [C,A,]2 [C,G,]2 (A,=B,) [E,C]2 | [F,C]2 [B,,D]2 [C,C]2 [C,B,]2 | [F,A,]4 [F,A,]2 [E,C]2 | %9
 [F,C]2 [F,A,]2 [F,A,]2 [E,C]2 | [F,C]2 [F,A,]2 [F,F]2 (FC) | [A,C]2 C2 [G,C]2 [G,,=B,]2 | %12
 [C,C]4 (A,B,) (G,A,) | (CD) (B,C) [F,A,]2 [B,,B,]2 | [C,A,]2 [C,G,]2 (F,A,) B,2 | %15
 [A,,C]3 [B,,D] [C,C]2 [C,B,]2 | [F,A,]4 |] %17
V:4
 x4 | x2 E,2 x4 | x8 | x6 C,2 x | x8 | x2 E,2 x4 | x4 D,2 x2 | x8 | x8 | x8 | x6 B,2 | %11
 x2 (G,F,) x4 | x8 | x8 | x4 F,2 (D,B,,) | x8 | x4 |] %17

